!!!COM: Wolfgang Amadeus Mozart
!!!OTL: Quintet for Clarinet and Strings, K. 581, 3. Menuetto (Excerpt from Second           Trio)
!!!system-decoration: (s1,s2,s3,s4,s5)
**kern	**dynam	**kern	**dynam	**kern	**dynam	**kern	**dynam	**kern	**dynam
*part5	*part5	*part4	*part4	*part3	*part3	*part2	*part2	*part1	*part1
*staff5	*	*staff4	*	*staff3	*	*staff2	*	*staff1	*
*clefF4	*	*clefC3	*	*clefG2	*	*clefG2	*	*clefG2	*
*	*	*	*	*	*	*	*	*ITrd2c3	*
*k[f#c#g#]	*	*k[f#c#g#]	*	*k[f#c#g#]	*	*k[f#c#g#]	*	*k[f#c#g#]	*
*M3/4	*	*M3/4	*	*M3/4	*	*M3/4	*	*M3/4	*
4r	.	4r	.	4r	.	4r	.	(>8aL	p
.	.	.	.	.	.	.	.	8cc#J	.
=1	=1	=1	=1	=1	=1	=1	=1	=1	=1
4A	p	4r	p	4r	p	4r	p	8eeL	.
.	.	.	.	.	.	.	.	8cc#J	.
4r	.	4c#y	.	4e	.	4a	.	4aa)	.
4r	.	4c#y	.	4e	.	4a	.	(>8eeL	.
.	.	.	.	.	.	.	.	8cc#J	.
=2	=2	=2	=2	=2	=2	=2	=2	=2	=2
4D	.	4r	.	4r	.	4r	.	8bL	.
.	.	.	.	.	.	.	.	8ddJ	.
4r	.	4B	.	4f#y	.	4a	.	4ff#)	.
4r	.	4B	.	4f#y	.	4a	.	(>8ddL	.
.	.	.	.	.	.	.	.	8bJ	.
=3	=3	=3	=3	=3	=3	=3	=3	=3	=3
4E	.	4r	.	4r	.	4r	.	8aL	.
.	.	.	.	.	.	.	.	8g#	.
4r	.	4B	.	4d	.	4g#y	.	8cc#	.
.	.	.	.	.	.	.	.	8b	.
4r	.	4B	.	4d	.	4g#y	.	8ee	.
.	.	.	.	.	.	.	.	8ddJ)	.
=4	=4	=4	=4	=4	=4	=4	=4	=4	=4
4F#y	.	4r	.	4r	.	4r	.	(>4b#	.
4r	.	4A	.	4c#y	.	4a	.	4cc#)	.
4r	.	4A	.	4c#y	.	4a	.	(>8aL	.
.	.	.	.	.	.	.	.	8cc#J	.
=5	=5	=5	=5	=5	=5	=5	=5	=5	=5
4C#y	.	4r	.	4r	.	4r	.	8eeL	.
.	.	.	.	.	.	.	.	8cc#J	.
4r	.	4c#y	.	4e	.	4a	.	4aa)	.
4r	.	4c#y	.	4e	.	4a	.	(>8eeL	.
.	.	.	.	.	.	.	.	8cc#J	.
=6	=6	=6	=6	=6	=6	=6	=6	=6	=6
4D	.	4B	.	4d	.	4f#y	.	8bL	.
.	.	.	.	.	.	.	.	8ddJ	.
4r	.	4r	.	4r	.	4r	.	4ff#)	.
4r	.	(>4e	.	(<4gn	.	(>8cc#yL	.	4r	.
.	.	.	.	.	.	8a#J	.	.	.
=7	=7	=7	=7	=7	=7	=7	=7	=7	=7
2.r	.	2d	.	2f#y	.	8bL	.	2.r	.
.	.	.	.	.	.	8ddJ	.	.	.
.	.	.	.	.	.	4ff#y)	.	.	.
.	.	4e	.	4gn	.	(>8cc#yL	.	.	.
.	.	.	.	.	.	8a#J	.	.	.
!!LO:LB
=8	=8	=8	=8	=8	=8	=8	=8	=8	=8
2.r	.	2d)	.	2f#y)	.	8bL	.	4r	.
.	.	.	.	.	.	8ddJ	.	.	.
.	.	.	.	.	.	4ff#y)	.	4r	.
.	.	4r	.	4r	.	4r	.	(<12BL	.
.	.	.	.	.	.	.	.	12F#	.
.	.	.	.	.	.	.	.	12DJ	.
=9	=9	=9	=9	=9	=9	=9	=9	=9	=9
2.r	.	2.r	.	2.r	.	2.r	.	8F#L)	.
.	.	.	.	.	.	.	.	8B'	.
.	.	.	.	.	.	.	.	8d'	.
.	.	.	.	.	.	.	.	8f#'	.
.	.	.	.	.	.	.	.	8b'	.
.	.	.	.	.	.	.	.	8dd'J	.
=10	=10	=10	=10	=10	=10	=10	=10	=10	=10
2.r	.	2.r	.	2.r	.	2.r	.	(>8ff#L	.
.	.	.	.	.	.	.	.	8ee	.
.	.	.	.	.	.	.	.	8dd	.
.	.	.	.	.	.	.	.	8cc#	.
.	.	.	.	.	.	.	.	8dd	.
.	.	.	.	.	.	.	.	8bJ)	.
=11	=11	=11	=11	=11	=11	=11	=11	=11	=11
(<4EE'	.	2.E	.	(<2A	.	(<8c#yL	.	(>2a	.
.	.	.	.	.	.	8e	.	.	.
4EE'	.	.	.	.	.	8c#y	.	.	.
.	.	.	.	.	.	8e	.	.	.
4EE')	.	.	.	4G#)	.	8d	.	8cc#L	.
.	.	.	.	.	.	8eJ)	.	8bJ)	.
=12	=12	=12	=12	=12	=12	=12	=12	=12	=12
4AA	.	4E	.	4A	.	4c#y	.	4a	.
4r	.	4r	.	4r	.	4r	.	4r	.
=	=	=	=	=	=	=	=	=	=
4r	.	4r	.	4r	.	(<8eL	.	4r	.
.	.	.	.	.	.	8g#yJ	.	.	.
=13	=13	=13	=13	=13	=13	=13	=13	=13	=13
!LO:TX:a:i:t=pizz.	!	!LO:TX:a:i:t=pizz.	!	!LO:TX:a:i:t=pizz.	!	!	!	!	!
4E	p	4d 4e	p	4B 4g#y	p	8bL	.	2.r	.
.	.	.	.	.	.	8g#yJ	.	.	.
4E	.	4d 4e	.	4B 4g#y	.	4ee)	.	.	.
4r	.	4r	.	4r	.	(<8eL	.	.	.
.	.	.	.	.	.	8aJ	.	.	.
=14	=14	=14	=14	=14	=14	=14	=14	=14	=14
4E	.	4c#y 4e	.	4A 4a	.	8cc#yL	.	2.r	.
.	.	.	.	.	.	8aJ	.	.	.
4E	.	4c#y 4e	.	4A 4a	.	4ee)	.	.	.
4r	.	4r	.	4r	.	(<8eL	.	.	.
.	.	.	.	.	.	8bJ	.	.	.
=15	=15	=15	=15	=15	=15	=15	=15	=15	=15
4E	.	4e	.	4g#y 4b	.	8ddL	.	2.r	.
.	.	.	.	.	.	8b	.	.	.
4E	.	4e	.	4g#y 4b	.	8ee	.	.	.
.	.	.	.	.	.	8dd	.	.	.
4E	.	4e	.	4a 4cc#y	.	8cc#y	.	.	.
.	.	.	.	.	.	8aJ)	.	.	.
=16	=16	=16	=16	=16	=16	=16	=16	=16	=16
4E	.	4e	.	4g#y 4b	.	(<8g#yL	.	4r	.
.	.	.	.	.	.	8bJ	.	.	.
4EE	.	4e	.	4g#y 4b	.	4ee)	.	4r	.
4r	.	4r	.	4r	.	8eL)	.	4ee)	.
.	.	.	.	.	.	8g#yJ	.	.	.
=	=	=	=	=	=	=	=	=	=
*-	*-	*-	*-	*-	*-	*-	*-	*-	*-
!!!RDF**kern: > = above
!!!RDF**kern: < = below
